X:1
T:Title
%%score { ( 1 2 ) | ( 3 4 ) }
L:1/8
M:6/8
K:Eb
V:1 treble nm="Grand Piano"
V:2 treble 
V:3 bass 
V:4 bass 
V:1
 z3 z z[Q:1/4=87] z/ F/ | G>AG GFE | [DB]<[DB][DB] B2 B/B/ |[M:3/8] [Ec][Ec][Ec] | BGE | %5
[M:3/4] [DF]4- [DF]E/F/ | GG GG FE |[M:5/8] [DB]>[DB][DB] [EB]2 |[M:1/8] [Ec]/[Fd]/ | %9
[M:3/4] [Ge]B G[DB] [DA][DF] | E6 | cc c c2 e | [Ge][GB] [GB] [GB]2 [EG] | %13
 [FA][FA] [FA][Ac] [GB][FA] | [EG]4 z2 | [EAc][EAc] [EAc][Ece] [EBd][EAc] | %16
[M:7/8] [GB]-[EG-B-][EG-B] [Ge]3 E/F/ |[M:3/4] GG G[DB] [DA][DF] |[M:5/8] E-E- E3 |] %19
V:2
 z3 z2 E | x6 | x6 |[M:3/8] x3 | x3 |[M:3/4] x6 | x6 |[M:5/8] x5 |[M:1/8] x |[M:3/4] x6 | x6 | x6 | %12
 x6 | x6 | z B, B, .[EGB]3 | x6 |[M:7/8] E z z z z z2 |[M:3/4] x6 |[M:5/8] x5 |] %19
V:3
 z3 z2 G,/A,/ | [E,B,E]>[E,CE][E,B,E] [E,B,E][E,A,B,][E,G,B,] | %2
 [B,,F,]<[B,,F,][B,,F,] [E,G,E]2 [E,G,E]/[E,G,E]/ |[M:3/8] [A,,A,][A,,A,][A,,A,] | %4
 [E,G,E][E,B,E][E,G,] |[M:3/4] [B,,B,]4- [B,,B,][E,G,]/[E,A,E]/ | %6
 [E,B,E][E,B,E] [E,B,E]B, A,[E,G,B,] |[M:5/8] [B,,F,]>[B,,F,][B,,F,] [E,G,]2 | %8
[M:1/8] [E,A,]/[E,A,]/ |[M:3/4] [E,B,][E,G,E] [E,E][B,,F,] [B,,F,][B,,A,] | [E,G,]6 | %11
 [A,E][A,E] [A,CE] [A,EA]2 [A,CA] | [E,B,][E,E] [E,E] [E,E]2 [E,B,] | %13
 [B,,B,][B,,B,] [B,,B,][B,,B,] [B,,B,][B,,B,] | [E,B,]E, E, .E,3 | A,A, A,A, A,A, | %16
[M:7/8] E,E,E, [E,B,]3 [E,G,]/[E,A,E]/ |[M:3/4] [E,B,E][E,B,E] [E,B,E][B,,B,] [B,,B,][B,,A,] | %18
[M:5/8] [E,G,]-[E,G,]- [E,G,]3 |] %19
V:4
 z3 z2 E, | x6 | x6 |[M:3/8] x3 | x3 |[M:3/4] x6 | z2 z .E,3 |[M:5/8] x5 |[M:1/8] x |[M:3/4] x6 | %10
 x6 | x6 | x6 | x6 | x6 | x6 |[M:7/8] x7 |[M:3/4] x6 |[M:5/8] x5 |] %19

